X:1
T:Canone a tre voci
T:Canone a tre voci 
T:Kanon for tre stemmer
T:Anon. (17. årh.)
C:Anon. (17. årh.)
%%score [ 1 2 3 ]
L:1/8
M:2/2
K:C
V:1 treble nm="I"
V:2 treble nm="II"
V:3 treble nm="III"
V:1
 C4 E2 F2 | G4 C2 G2 | A2 A2 A2 (GF) | G8 | C4 c4 | B4 c4 | z2 c2 d2 e2 | (d2 c2 d4) | c4 z4 | z8 | %10
w: Io so- no~il|pri- mo e|so- no~il fa- gio- *|la-|io, e|so- no|il fa- gio-|la- * *|io,||
 z8 | z8 | z8 | z2 d2 e2 (dc) | d2 G2 z4 | z2 G2 c4- | c2 B2 (e4- | e2 d2 c4- | c2 B2 A2 e2 | %19
w: |||il fa- gio- *|la- io,|il fa-|* gio- la-|||
 d2 c2 d4) | c8 | G4 B2 c2 | d4 B4 | (B2 A2 G4- | G4) ^F4 | G4 d4 | B4 ^F4 | G4 A4 | (B2 c2 d2 e2 | %29
w: |io,|mi chia- mo~il|P: mi|chia- * *|* mo~il|P: il|P: il|P: mi|chia- * * *|
 A6) A2 | B4 g4 | e4 B4 | c4 d4 | (e2 f2 g2 a2) | d6 c2 | c4 e4 | (e2 f2 g2 a2) | e4 e4 | %38
w: * mo~il|P: il|P: il|P: mi|chia- * * *|mo il|P: mi|chia- * * *|mo, mi|
 (e2 f2 g2 f2) | e4 B4 | (B2 c2 d2 c2) | B4 B4 | (B2 c2 d2 c2) | B4 d4 | (e4 f2 e2) | d6 c2 | %46
w: chia- * * *|mo, mi|chia- * * *|mo, mi|chia- * * *|mo, mi|chia- * *|mo, il|
 c4 g4 | e4 B4 | c4 d4 | (e2 f2 g2 a2) | d6 c2 | c4 c4 | d6 c2 | c8 |] %54
w: P: il|P: il|P: mi|chia- * * *|mo, il|P: mi|chia- mo~il|P:|
V:2
 z8 | z8 | z8 | z8 | C4 E2 F2 | G4 C2 G2 | A2 A2 A2 (GF) | G8 | C4 c4 | B4 c4 | z2 c2 d2 e2 | %11
w: ||||So- no~il se-|con- do e|so- no~il lu- pi- *|na-|io e|so- no|il lu- pi-|
 (d2 c2 d4) | c4 z4 | z8 | z2 d2 e2 dc | d2 G2 z4 | z2 G2 c4- | c2 B2 e4- | e2 d2 c4- | c4 B4 | %20
w: na- * *|io,||il lu- pi- *|na- io|il lu-|* pi- na-|||
 c8 | z8 | G4 B2 c2 | d4 B4 | B4 A4 | B4 z4 | z4 d4 | B4 ^F4 | G4 G4 | G4 ^F4 | G4 z4 | z4 g4 | %32
w: io,||mi chia- mo~il|mi, mi|chia- mo~il|mi,|il|mi, il|mi, mi|chia- mo~il|mi,|il|
 e4 B4 | c4 c4 | c4 B4 | c4 c4 | (c2 d2 e2 f2) | c4 c4 | (c2 d2 e2 d2) | c4 G4 | (G2 A2 B2 A2) | %41
w: mi, mi,|mi, mi|chia- mo~il|mi, mi|chia- * * *|mo, mi|chia- * * *|mo, mi|chia- * * *|
 G4 G4 | (G2 A2 B2 A2) | G4 G4 | (c4 d2 c2) | B6 c2 | c4 z4 | z4 g4 | e4 B4 | c4 c4 | c4 B4 | %51
w: mo, mi|chia- * * *|mo, mi|chia- * *|mo, il|mi,|il|mi, il|mi, mi|chia- mo~il|
 c4 e4 | B6 c2 | c8 |] %54
w: mi, mi|chia- mo~il|mi|
V:3
 z8 | z8 | z8 | z8 | z8 | z8 | z8 | z8 | C4 E2 F2 | G4 C2 G2 | A2 A2 (A2 GF | G8) | C4 c4 | %13
w: ||||||||So- no il|ter- zo e|so- no~il vo- * *||ta e|
 (B4 c4) | G4 z4 | z2 G2 (A2 GF | G4) C2 G2 | c6 B2 | (A6 G2 | F2 EF G4) | C8 | z8 | z8 | %23
w: so- *|no|il vo- * *|* ta il|vo- ta~il|vo- *||ta,|||
 z2 G2 B2 G2 | d4 D2 D2 | G4 z4 | z8 | z4 D4 | G4 (B,2 C2) | D4 D2 D2 | G,4 z4 | z8 | z4 G4 | %33
w: ed i- o|so- no il|G:||ed|i- o _|so- no il|G:||ed|
 c4 (E2 F2) | G4 G2 G2 | C4 c4 | c4 c2 c2 | c4 c4 | c4 c2 c2 | C4 G4 | G4 G2 G2 | G4 G4 | %42
w: i- o _|so- no il|G: io|so- no il|G: io|so- no il|G: io|so- no il|G: io|
 G4 G2 G2 | G,4 G2 F2 | E2 D2 C4 | G4 G2 G2 | C4 z4 | z8 | z4 G4 | c4 (E2 F2) | G4 G2 G2 | C4 c4 | %52
w: so- no il|G: ed _|i- * o|so- no il|G:||ed|i- o _|so- no il|G: io|
 G4 G4 | C8 |] %54
w: so- no~il|G:|

